icons/linear-ele-food-dessert.svg

<svg xmlns="http://www.w3.org/2000/svg" width="32px" height="32px" viewBox="0 0 32 32" version="1.1">
    <title>linear-ele-food-dessert</title>
    <g id="linear-ele-food-dessert" stroke-width="1" fill-rule="evenodd">
        <path d="M16,2 C19.1429482,2 21.8458929,4.08431185 22.7114113,7.00418664 L22.960465,7.01900175 C25.6173501,7.23922409 27.7382915,9.34794144 27.9775233,11.9993879 L28,12 L28,13 C28,19.2905048 23.1597751,24.4505146 17.0004669,24.9588877 L17,28 L20,28 C20.5522847,28 21,28.4477153 21,29 C21,29.5522847 20.5522847,30 20,30 L12,30 C11.4477153,30 11,29.5522847 11,29 C11,28.4477153 11.4477153,28 12,28 L15,28 L15.0005348,24.9589703 C8.84074966,24.451074 4,19.2908458 4,13 L4,12 L4.0224767,11.9993879 C4.26916237,9.26532864 6.51664369,7.10834568 9.28940197,7.00395768 C10.1541533,4.08406807 12.8572989,2 16,2 Z M25.949,14 L6.05,14 L6.06066678,14.1078025 C6.60185592,19.0184033 10.6986311,22.8581542 15.7200952,22.9961582 L16,23 C21.1484172,23 25.3881221,19.1093403 25.9393332,14.1078025 L25.949,14 Z M16,4 C13.854776,4 11.9955901,5.36031696 11.2957284,7.30009884 C13.3011248,7.99275565 14.7800952,9.81125838 14.9775233,11.9993879 L17.0224767,11.9993879 C17.2199048,9.81125838 18.6988752,7.99275565 20.7030079,7.30025967 C20.0044092,5.36044389 18.1453679,4 16,4 Z M22.5,9 C20.7370932,9 19.2786039,10.3033661 19.0355804,11.9990501 L25.9644196,11.9990501 C25.7213961,10.3033661 24.2629068,9 22.5,9 Z M9.5,9 C7.73709322,9 6.27860392,10.3033661 6.03558044,11.9990501 L12.9644196,11.9990501 C12.7213961,10.3033661 11.2629068,9 9.5,9 Z" id="&#24418;&#29366;" fill-rule="nonzero" />
    </g>
</svg>

<svg xmlns="http://www.w3.org/2000/svg" viewBox="0 0 32 32"><path fill="currentColor" d="M16 2a7.004 7.004 0 0 1 6.711 5.004l.25.015a5.501 5.501 0 0 1 5.017 4.98L28 12v1c0 6.29-4.84 11.45-11 11.959V28h3a1 1 0 0 1 0 2h-8a1 1 0 0 1 0-2h3v-3.041C8.84 24.451 4 19.291 4 13v-1h.022A5.5 5.5 0 0 1 9.29 7.003 7.003 7.003 0 0 1 16 2m9.949 12H6.05l.01.108c.542 4.91 4.639 8.75 9.66 8.888L16 23c5.148 0 9.388-3.89 9.94-8.892zM16 4a5.005 5.005 0 0 0-4.704 3.3 5.504 5.504 0 0 1 3.682 4.7h2.044a5.505 5.505 0 0 1 3.681-4.7A5.002 5.002 0 0 0 16 4m6.5 5a3.5 3.5 0 0 0-3.464 3h6.928A3.5 3.5 0 0 0 22.5 9m-13 0a3.5 3.5 0 0 0-3.464 3h6.928A3.5 3.5 0 0 0 9.5 9"/></svg>
